X:1
T: The Drunken Heron
C:Gordy Euler
R:Reel
Q: 232
K:Em
M:4/4
L:1/8
|:[e2d2] B2 [e2d2] B2|e2 eB cA GA|BA Bc Bd ed|ed BA BA Bd|
[e2d2] B2 [e2d2] B2|e2 eB cA GA|BA Bc Bd ed|BA GF E4:|
|:Bd ed ed BA|Bd ed ed BA|Bd ef gf ed|ed BA BA Bd|
Bd ed ed BA|Bd ef ga ba|gf ed Bd ed|BA Bd e4:|
